src/img/illus-mobile.svg

<?xml version="1.0" encoding="UTF-8" standalone="no"?>
<svg width="66px" height="66px" viewBox="0 0 66 66" version="1.1" xmlns="http://www.w3.org/2000/svg" xmlns:xlink="http://www.w3.org/1999/xlink" xmlns:sketch="http://www.bohemiancoding.com/sketch/ns">
    <!-- Generator: Sketch 3.5.2 (25235) - http://www.bohemiancoding.com/sketch -->
    <title>illus-mobile</title>
    <desc>Created with Sketch.</desc>
    <defs></defs>
    <g id="Page-1" stroke="none" stroke-width="1" fill="none" fill-rule="evenodd" sketch:type="MSPage">
        <g id="Desktop-HD" sketch:type="MSArtboardGroup" transform="translate(-94.000000, -1606.000000)" fill="#FFFFFF">
            <g id="illus-mobile" sketch:type="MSLayerGroup" transform="translate(94.000000, 1606.000000)">
                <path d="M65.3339086,32.7689612 C65.3339086,50.6160983 50.8657182,65.0837012 33.0191686,65.0837012 C15.172619,65.0837012 0.704428629,50.6160983 0.704428629,32.7689612 C0.704428629,14.9224116 15.172619,0.45422119 33.0191686,0.45422119 C50.8657182,0.45422119 65.3339086,14.9224116 65.3339086,32.7689612" id="Fill-311" sketch:type="MSShapeGroup"></path>
                <path d="M42.0893621,54.552285 C41.5000237,57.1049898 38.9789378,58.7021971 36.457748,58.1201345 L18.1992819,53.9048355 C15.6788528,53.3229486 14.1123246,50.7820412 14.7016629,48.2293365 L23.9489752,8.17482653 C24.5381357,5.62289208 27.0601602,4.02509016 29.5805893,4.60697707 L47.8390554,8.8222761 C50.3602452,9.40433864 51.9258348,11.9458406 51.3366743,14.4977751 L42.0893621,54.552285 L42.0893621,54.552285 Z" id="Fill-6312" stroke="#F5A623" stroke-width="1.4" sketch:type="MSShapeGroup"></path>
                <path d="M41.7079378,49.9568096 L17.0590086,44.2661559 L24.1723257,13.4549944 L48.8212549,19.1456481 L41.7079378,49.9568096 L41.7079378,49.9568096 Z" id="Fill-6313" stroke="#F5A623" stroke-width="1.4" sketch:type="MSShapeGroup"></path>
                <path d="M32.6523853,11.0856504 C32.5651286,11.4636007 32.1875693,11.6995259 31.8096191,11.6122692 C31.4316688,11.5250125 31.1957436,11.1474532 31.2830003,10.769503 C31.370257,10.3915527 31.7478163,10.1556275 32.1257665,10.2428842 C32.5037168,10.3301409 32.739642,10.7077002 32.6523853,11.0856504" id="Fill-6314" stroke="#F5A623" stroke-width="1.4" sketch:type="MSShapeGroup"></path>
                <path d="M43.6074649,13.6148298 C43.5202082,13.9927801 43.1170871,14.2228039 42.707641,14.1282758 L35.2901392,12.4158106 C34.8806931,12.3212825 34.619206,11.9378218 34.7064627,11.5598716 C34.7937194,11.1819213 35.1968405,10.9518975 35.6062866,11.0464256 L43.0237885,12.7588908 C43.4332346,12.8534189 43.6947216,13.2368796 43.6074649,13.6148298" id="Fill-6315" stroke="#F5A623" stroke-width="1.4" sketch:type="MSShapeGroup"></path>
                <path d="M31.7794565,51.6496498 C31.3866235,53.3511962 29.688555,54.4122671 27.9870086,54.0194342 C26.2854622,53.6266013 25.2243912,51.9285327 25.6172242,50.2269863 C26.0100571,48.5254399 27.7081256,47.464369 29.409672,47.8572019 C31.1112184,48.2500348 32.1722894,49.9481034 31.7794565,51.6496498" id="Fill-6316" stroke="#F5A623" stroke-width="1.4" sketch:type="MSShapeGroup"></path>
            </g>
        </g>
    </g>
</svg>

<svg width="66" height="66" viewBox="0 0 66 66" xmlns="http://www.w3.org/2000/svg">
    <title>
        illus-mobile
    </title>
    <g fill="#FFF" fill-rule="evenodd">
        <path d="M65.334 32.769c0 17.847-14.468 32.315-32.315 32.315C15.173 65.084.704 50.616.704 32.769.704 14.922 15.173.454 33.02.454s32.315 14.468 32.315 32.315"/>
        <path d="M42.09 54.552c-.59 2.553-3.111 4.15-5.632 3.568l-18.259-4.215c-2.52-.582-4.087-3.123-3.497-5.676l9.247-40.054c.59-2.552 3.111-4.15 5.632-3.568l18.258 4.215c2.521.582 4.087 3.124 3.498 5.676l-9.248 40.054z" stroke="#F5A623" stroke-width="1.4"/>
        <path d="M41.708 49.957l-24.649-5.69 7.113-30.812 24.65 5.69-7.114 30.812zm-9.056-38.871a.703.703 0 1 1-1.37-.317.703.703 0 0 1 1.37.317m10.955 2.529c-.087.378-.49.608-.9.513l-7.417-1.712c-.41-.095-.67-.478-.584-.856.088-.378.49-.608.9-.514l7.418 1.713c.41.094.67.478.583.856M31.78 51.65a3.162 3.162 0 1 1-6.163-1.423 3.162 3.162 0 0 1 6.162 1.423" stroke="#F5A623" stroke-width="1.4"/>
    </g>
</svg>
